public/assets/delivery/icon1.svg

<svg width="57" height="74" viewBox="0 0 57 74" fill="none" xmlns="http://www.w3.org/2000/svg">
<path id="Subtract" fill-rule="evenodd" clip-rule="evenodd" d="M52.7486 28.1008C52.7486 31.0049 51.3513 35.3489 48.7449 40.652C46.2084 45.8129 42.7869 51.3753 39.3062 56.545C35.835 61.7006 32.3562 66.3904 29.7413 69.7954C29.3757 70.2714 29.0274 70.7219 28.6986 71.1447L31.5487 73.9948C38.8525 64.6386 56.7486 40.4534 56.7486 28.1008C56.7486 12.5811 44.1012 0 28.4998 0C12.8984 0 0.250977 12.5811 0.250977 28.1008C0.250977 40.4557 18.1537 64.6476 25.455 74L28.3051 71.1499C27.9751 70.7256 27.6254 70.2733 27.2584 69.7954C24.6434 66.3904 21.1646 61.7006 17.6934 56.545C14.2127 51.3753 10.7912 45.8129 8.25471 40.652C5.64831 35.3489 4.25098 31.0049 4.25098 28.1008C4.25098 14.8101 15.0877 4 28.4998 4C41.9119 4 52.7486 14.8101 52.7486 28.1008Z" fill="#202020"/>
</svg>

<svg width="57" height="74" fill="none" xmlns="http://www.w3.org/2000/svg"><path fill-rule="evenodd" clip-rule="evenodd" d="M52.749 28.1c0 2.905-1.398 7.249-4.004 12.552-2.537 5.16-5.958 10.723-9.439 15.893-3.471 5.156-6.95 9.845-9.565 13.25-.365.476-.714.927-1.042 1.35l2.85 2.85c7.303-9.356 25.2-33.542 25.2-45.894C56.749 12.58 44.1 0 28.499 0 12.9 0 .252 12.581.252 28.1c0 12.356 17.903 36.548 25.204 45.9l2.85-2.85c-.33-.424-.68-.877-1.047-1.355-2.615-3.405-6.093-8.094-9.565-13.25-3.48-5.17-6.902-10.732-9.438-15.893-2.607-5.303-4.004-9.647-4.004-12.551C4.251 14.81 15.088 4 28.5 4c13.412 0 24.249 10.81 24.249 24.1Z" fill="#202020"/></svg>
